;FLAVOR:Marlin
;TIME:2748
;Filament used: 2.55453m
;Layer height: 0.2
;Generated with Cura_SteamEngine 4.0.0
M140 S70
M105
M190 S70
M104 S210
M105
M109 S210
M82 ;absolute extrusion mode
; Ender 3 Custom Start G-code
G28 ; Home all axes
G92 E0 ; Reset Extruder
G1 Z2.0 F3000 ; Move Z Axis up little to prevent scratching of Heat Bed
G1 X0.1 Y20 Z0.3 F5000.0 ; Move to start position
G1 X0.1 Y200.0 Z0.3 F1500.0 E15 ; Draw the first line
G1 X0.4 Y200.0 Z0.3 F5000.0 ; Move to side a little
G1 X0.4 Y20 Z0.3 F1500.0 E30 ; Draw the second line
G92 E0 ; Reset Extruder
G1 Z2.0 F3000 ; Move Z Axis up little to prevent scratching of Heat Bed
; End of custom start GCode
G92 E0
G1 F2400 E-5
;LAYER_COUNT:26
;LAYER:0
M107
M204 S5000
M205 X30 Y30
G0 F3600 X44.343 Y161 Z0.2
M204 S500
M205 X20 Y20
;TYPE:SKIRT
G1 F2400 E0
G1 F1800 X191.018 Y14.259 E6.90069
G1 X191.552 Y13.782 E6.92451
G1 X192.135 Y13.367 E6.94831
G1 X192.76 Y13.021 E6.97207
G1 X193.421 Y12.746 E6.99588
G1 X194.108 Y12.547 E7.01967
G1 X194.812 Y12.425 E7.04344
G1 X195.526 Y12.383 E7.06723
G1 X196.241 Y12.421 E7.09104
G1 X196.946 Y12.538 E7.11481
G1 X197.634 Y12.734 E7.1386
G1 X198.296 Y13.005 E7.16239
G1 X198.924 Y13.348 E7.18619
G1 X199.509 Y13.759 E7.20997
G1 X200.029 Y14.216 E7.233
G1 X200.194 Y14.378 E7.24069
G1 X200.675 Y14.907 E7.26447
G1 X201.095 Y15.486 E7.28826
G1 X201.447 Y16.109 E7.31206
G1 X201.728 Y16.767 E7.33586
G1 X201.933 Y17.452 E7.35964
G1 X202.061 Y18.156 E7.38344
G1 X202.11 Y18.869 E7.40721
G1 X202.078 Y19.584 E7.43101
G1 X201.967 Y20.29 E7.45478
G1 X201.778 Y20.98 E7.47858
G1 X201.513 Y21.644 E7.50236
G1 X201.29 Y22.078 E7.51859
G1 X193.019 Y36.808 E8.08046
G1 X192.91 Y36.996 E8.08769
G1 X184.904 Y50.185 E8.60085
G1 X184.856 Y50.262 E8.60387
G1 X167.878 Y77.357 E9.66735
G1 X167.848 Y77.405 E9.66924
G1 X159.065 Y91.151 E10.21179
G1 X158.954 Y91.318 E10.21846
G1 X150.988 Y102.964 E10.68775
G1 X150.86 Y103.145 E10.69512
G1 X141.299 Y116.135 E11.23159
G1 X141.194 Y116.273 E11.23735
G1 X131.216 Y129.086 E11.77749
G1 X131.123 Y129.204 E11.78249
G1 X121.093 Y141.478 E12.30969
G1 X120.951 Y141.645 E12.31699
G1 X110.757 Y153.282 E12.83154
G1 X110.59 Y153.466 E12.8398
G1 X99.393 Y165.289 E13.3814
G1 X99.237 Y165.448 E13.38881
G1 X86.5 Y177.992 E13.98339
G1 X86.312 Y178.169 E13.99198
G1 X80.894 Y183.091 E14.23544
G1 X80.667 Y183.288 E14.24544
G1 X74.36 Y188.499 E14.51755
G1 X74.094 Y188.707 E14.52878
G1 X68.475 Y192.87 E14.76137
G1 X68.163 Y193.087 E14.77401
G1 X60.846 Y197.863 E15.06463
G1 X60.555 Y198.043 E15.07601
G1 X54.194 Y201.726 E15.32048
G1 X53.835 Y201.918 E15.33402
G1 X47.028 Y205.301 E15.58685
G1 X46.55 Y205.515 E15.60426
G1 X42.484 Y207.136 E15.74985
G1 X41.856 Y207.349 E15.77191
G1 X37.914 Y208.464 E15.90816
G1 X37.212 Y208.621 E15.93209
G1 X33.555 Y209.223 E16.05536
G1 X32.946 Y209.293 E16.07575
G1 X30.104 Y209.485 E16.17049
G1 X29.095 Y209.474 E16.20405
G1 X26.989 Y209.283 E16.27438
G1 X26.281 Y209.179 E16.29818
G1 X25.586 Y208.995 E16.32209
G1 X23.826 Y208.422 E16.38366
G1 X23.159 Y208.163 E16.40745
G1 X22.525 Y207.831 E16.43126
G1 X21.933 Y207.43 E16.45504
G1 X21.563 Y207.126 E16.47097
G1 X20.362 Y206.062 E16.52433
G1 X19.854 Y205.559 E16.54811
G1 X19.405 Y205.002 E16.57191
G1 X19.022 Y204.398 E16.59569
G1 X18.708 Y203.756 E16.61946
G1 X18.446 Y203.008 E16.64583
G1 X17.975 Y201.337 E16.70357
G1 X17.82 Y200.639 E16.72735
G1 X17.743 Y199.928 E16.75114
G1 X17.747 Y199.213 E16.77492
G1 X17.79 Y198.767 E16.78982
G1 X18.068 Y196.651 E16.8608
G1 X18.2 Y195.948 E16.88459
G1 X18.382 Y195.344 E16.90558
G1 X19.259 Y192.873 E16.99278
G1 X19.573 Y192.137 E17.0194
G1 X21.058 Y189.186 E17.12928
G1 X21.307 Y188.737 E17.14635
G1 X22.531 Y186.725 E17.22468
G1 X22.843 Y186.26 E17.24331
G1 X25.518 Y182.622 E17.3935
G1 X25.751 Y182.324 E17.40608
G1 X33.18 Y173.379 E17.79282
G1 X33.283 Y173.258 E17.7981
G1 X38.727 Y167.026 E18.07333
G1 X38.865 Y166.873 E18.08018
G1 X44.188 Y161.161 E18.33987
G1 X44.343 Y161 E18.3473
M204 S5000
M205 X30 Y30
G0 F3600 X44.626 Y161.282
M204 S500
M205 X20 Y20
G1 F1800 X191.301 Y14.541 E25.248
G1 X191.818 Y14.081 E25.27101
G1 X192.385 Y13.682 E25.29407
G1 X192.994 Y13.352 E25.31711
G1 X193.637 Y13.095 E25.34014
G1 X194.305 Y12.913 E25.36317
G1 X194.99 Y12.809 E25.38621
G1 X195.682 Y12.785 E25.40924
G1 X196.372 Y12.84 E25.43227
G1 X197.051 Y12.975 E25.45529
G1 X197.71 Y13.187 E25.47832
G1 X198.341 Y13.474 E25.50137
G1 X198.934 Y13.832 E25.52441
G1 X199.482 Y14.255 E25.54744
G1 X199.749 Y14.502 E25.55953
G1 X199.914 Y14.664 E25.56722
G1 X200.379 Y15.177 E25.59025
G1 X200.782 Y15.74 E25.61328
G1 X201.118 Y16.345 E25.6363
G1 X201.381 Y16.986 E25.65934
G1 X201.569 Y17.652 E25.68236
G1 X201.679 Y18.336 E25.7054
G1 X201.709 Y19.028 E25.72844
G1 X201.66 Y19.719 E25.75148
G1 X201.531 Y20.399 E25.7745
G1 X201.325 Y21.06 E25.79753
G1 X200.942 Y21.883 E25.82772
G1 X192.671 Y36.613 E26.38959
G1 X192.568 Y36.788 E26.39635
G1 X184.562 Y49.977 E26.90951
G1 X184.517 Y50.05 E26.91236
G1 X167.539 Y77.145 E27.97585
G1 X167.511 Y77.19 E27.97761
G1 X158.728 Y90.936 E28.52016
G1 X158.624 Y91.092 E28.5264
G1 X150.658 Y102.738 E28.99569
G1 X150.538 Y102.908 E29.00261
G1 X140.977 Y115.898 E29.53907
G1 X140.879 Y116.027 E29.54446
G1 X130.901 Y128.84 E30.0846
G1 X130.813 Y128.951 E30.08931
G1 X120.783 Y141.225 E30.61652
G1 X120.65 Y141.382 E30.62336
G1 X110.456 Y153.019 E31.13791
G1 X110.299 Y153.191 E31.14566
G1 X99.102 Y165.014 E31.68726
G1 X98.956 Y165.163 E31.69419
G1 X86.219 Y177.707 E32.28878
G1 X86.043 Y177.873 E32.29683
G1 X80.625 Y182.795 E32.54029
G1 X80.413 Y182.979 E32.54963
G1 X74.106 Y188.19 E32.82173
G1 X73.856 Y188.386 E32.8323
G1 X68.237 Y192.549 E33.06489
G1 X67.945 Y192.752 E33.07672
G1 X60.628 Y197.528 E33.36734
G1 X60.354 Y197.696 E33.37803
G1 X53.993 Y201.379 E33.6225
G1 X53.657 Y201.56 E33.6352
G1 X46.85 Y204.943 E33.88802
G1 X46.402 Y205.143 E33.90433
G1 X42.336 Y206.764 E34.04992
G1 X41.747 Y206.964 E34.07061
G1 X37.805 Y208.079 E34.20687
G1 X37.147 Y208.226 E34.22929
G1 X33.49 Y208.828 E34.35256
G1 X32.919 Y208.894 E34.37168
G1 X30.077 Y209.086 E34.46642
G1 X29.131 Y209.075 E34.49788
G1 X27.025 Y208.884 E34.56822
G1 X26.34 Y208.782 E34.59125
G1 X25.71 Y208.614 E34.61294
G1 X23.95 Y208.041 E34.6745
G1 X23.305 Y207.789 E34.69753
G1 X22.693 Y207.465 E34.72056
G1 X22.123 Y207.072 E34.74359
G1 X21.828 Y206.827 E34.75635
G1 X20.627 Y205.763 E34.80971
G1 X20.136 Y205.275 E34.83274
G1 X19.705 Y204.733 E34.85577
G1 X19.339 Y204.145 E34.87881
G1 X19.043 Y203.519 E34.90184
G1 X18.831 Y202.9 E34.9236
G1 X18.36 Y201.229 E34.98134
G1 X18.211 Y200.552 E35.0044
G1 X18.141 Y199.864 E35.0274
G1 X18.15 Y199.171 E35.05045
G1 X18.186 Y198.819 E35.06222
G1 X18.464 Y196.703 E35.1332
G1 X18.594 Y196.023 E35.15623
G1 X18.759 Y195.478 E35.17517
G1 X19.636 Y193.007 E35.26238
G1 X19.93 Y192.317 E35.28732
G1 X21.415 Y189.366 E35.3972
G1 X21.649 Y188.945 E35.41322
G1 X22.873 Y186.933 E35.49155
G1 X23.165 Y186.497 E35.509
G1 X25.84 Y182.859 E35.65919
G1 X26.058 Y182.58 E35.67097
G1 X33.487 Y173.635 E36.05771
G1 X33.584 Y173.521 E36.06269
G1 X39.028 Y167.289 E36.33791
G1 X39.158 Y167.145 E36.34436
G1 X44.481 Y161.433 E36.60405
G1 X44.626 Y161.282 E36.61101
M204 S5000
M205 X30 Y30
G0 F3600 X44.909 Y161.565
M204 S500
M205 X20 Y20
G1 F1800 X191.584 Y14.824 E43.51171
G1 X192.085 Y14.38 E43.53397
G1 X192.634 Y13.999 E43.5562
G1 X193.226 Y13.686 E43.57847
G1 X193.85 Y13.446 E43.60071
G1 X194.499 Y13.282 E43.62297
G1 X195.162 Y13.196 E43.64521
G1 X195.831 Y13.19 E43.66746
G1 X196.496 Y13.264 E43.68972
G1 X197.148 Y13.417 E43.71199
G1 X197.776 Y13.647 E43.73424
G1 X198.373 Y13.949 E43.75649
G1 X198.929 Y14.321 E43.77874
G1 X199.468 Y14.787 E43.80244
G1 X199.633 Y14.949 E43.81013
G1 X200.082 Y15.445 E43.83238
G1 X200.468 Y15.992 E43.85465
G1 X200.786 Y16.58 E43.87688
G1 X201.032 Y17.203 E43.89916
G1 X201.202 Y17.85 E43.92141
G1 X201.293 Y18.512 E43.94363
G1 X201.305 Y19.181 E43.96589
G1 X201.237 Y19.847 E43.98815
G1 X201.09 Y20.5 E44.01042
G1 X200.866 Y21.13 E44.03266
G1 X200.593 Y21.687 E44.05329
G1 X192.322 Y36.417 E44.61516
G1 X192.226 Y36.581 E44.62148
G1 X184.22 Y49.77 E45.13464
G1 X184.178 Y49.837 E45.13727
G1 X167.2 Y76.932 E46.20076
G1 X167.174 Y76.974 E46.2024
G1 X158.391 Y90.72 E46.74495
G1 X158.294 Y90.867 E46.75081
G1 X150.328 Y102.513 E47.22011
G1 X150.216 Y102.671 E47.22655
G1 X140.655 Y115.661 E47.76301
G1 X140.563 Y115.782 E47.76806
G1 X130.585 Y128.595 E48.3082
G1 X130.503 Y128.698 E48.31258
G1 X120.473 Y140.972 E48.83979
G1 X120.349 Y141.118 E48.84616
G1 X110.155 Y152.755 E49.36071
G1 X110.009 Y152.916 E49.36794
G1 X98.812 Y164.739 E49.90953
G1 X98.675 Y164.878 E49.91603
G1 X85.938 Y177.422 E50.51061
G1 X85.775 Y177.577 E50.51809
G1 X80.357 Y182.499 E50.76156
G1 X80.158 Y182.671 E50.7703
G1 X73.851 Y187.882 E51.04241
G1 X73.618 Y188.065 E51.05227
G1 X67.999 Y192.228 E51.28486
G1 X67.726 Y192.417 E51.2959
G1 X60.409 Y197.193 E51.58652
G1 X60.154 Y197.35 E51.59648
G1 X53.793 Y201.033 E51.84095
G1 X53.479 Y201.202 E51.85281
G1 X46.672 Y204.585 E52.10564
G1 X46.254 Y204.772 E52.12087
G1 X42.188 Y206.393 E52.26645
G1 X41.638 Y206.58 E52.28577
G1 X37.696 Y207.695 E52.42203
G1 X37.082 Y207.832 E52.44295
G1 X33.425 Y208.434 E52.56622
G1 X32.892 Y208.495 E52.58407
G1 X30.05 Y208.687 E52.67881
G1 X29.167 Y208.677 E52.70818
G1 X27.061 Y208.486 E52.77851
G1 X26.4 Y208.386 E52.80075
G1 X25.833 Y208.234 E52.82027
G1 X24.073 Y207.661 E52.88183
G1 X23.451 Y207.416 E52.90407
G1 X22.862 Y207.099 E52.92631
G1 X22.093 Y206.528 E52.95817
G1 X20.892 Y205.464 E53.01154
G1 X20.419 Y204.991 E53.03379
G1 X20.006 Y204.465 E53.05603
G1 X19.658 Y203.894 E53.07827
G1 X19.38 Y203.285 E53.10054
G1 X19.216 Y202.791 E53.11785
G1 X18.745 Y201.12 E53.17559
G1 X18.602 Y200.467 E53.19783
G1 X18.539 Y199.801 E53.22008
G1 X18.583 Y198.872 E53.25101
G1 X18.861 Y196.756 E53.32199
G1 X18.987 Y196.099 E53.34424
G1 X19.136 Y195.612 E53.36118
G1 X20.013 Y193.141 E53.44839
G1 X20.288 Y192.497 E53.47168
G1 X21.773 Y189.546 E53.58156
G1 X21.991 Y189.153 E53.59651
G1 X23.215 Y187.141 E53.67483
G1 X23.487 Y186.734 E53.69112
G1 X26.162 Y183.096 E53.84131
G1 X26.366 Y182.835 E53.85232
G1 X33.795 Y173.89 E54.23906
G1 X33.886 Y173.784 E54.24371
G1 X39.33 Y167.552 E54.51894
G1 X39.45 Y167.418 E54.52492
G1 X44.773 Y161.706 E54.78461
G1 X44.909 Y161.565 E54.79112
M204 S5000
M205 X30 Y30
G0 F3600 X45.192 Y161.848
M204 S500
M205 X20 Y20
G1 F1800 X191.867 Y15.107 E61.69182
G1 X192.35 Y14.68 E61.71326
G1 X192.883 Y14.316 E61.73473
G1 X193.456 Y14.021 E61.75616
G1 X194.061 Y13.799 E61.7776
G1 X194.689 Y13.654 E61.79903
G1 X195.33 Y13.587 E61.82047
G1 X195.975 Y13.601 E61.84193
G1 X196.613 Y13.694 E61.86337
G1 X197.234 Y13.865 E61.88479
G1 X197.83 Y14.112 E61.90625
G1 X198.39 Y14.43 E61.92767
G1 X198.907 Y14.816 E61.94913
G1 X199.188 Y15.072 E61.96177
G1 X199.353 Y15.234 E61.96946
G1 X199.784 Y15.714 E61.99092
G1 X200.153 Y16.243 E62.01237
G1 X200.453 Y16.813 E62.0338
G1 X200.68 Y17.416 E62.05523
G1 X200.831 Y18.043 E62.07668
G1 X200.903 Y18.684 E62.09813
G1 X200.896 Y19.328 E62.11955
G1 X200.809 Y19.967 E62.141
G1 X200.643 Y20.59 E62.16244
G1 X200.401 Y21.188 E62.1839
G1 X200.244 Y21.491 E62.19525
G1 X191.973 Y36.221 E62.75712
G1 X191.884 Y36.373 E62.76298
G1 X183.878 Y49.562 E63.27614
G1 X183.839 Y49.625 E63.27861
G1 X166.861 Y76.72 E64.3421
G1 X166.837 Y76.759 E64.34362
G1 X158.054 Y90.505 E64.88617
G1 X157.964 Y90.641 E64.8916
G1 X149.998 Y102.287 E65.36089
G1 X149.894 Y102.433 E65.36685
G1 X140.333 Y115.423 E65.90331
G1 X140.248 Y115.536 E65.90802
G1 X130.27 Y128.349 E66.44816
G1 X130.194 Y128.444 E66.4522
G1 X120.164 Y140.718 E66.97941
G1 X120.048 Y140.854 E66.98535
G1 X109.854 Y152.491 E67.4999
G1 X109.719 Y152.641 E67.50662
G1 X98.522 Y164.464 E68.04821
G1 X98.395 Y164.593 E68.05423
G1 X85.658 Y177.137 E68.64882
G1 X85.506 Y177.281 E68.65578
G1 X80.088 Y182.203 E68.89924
G1 X79.903 Y182.363 E68.90738
G1 X73.596 Y187.574 E69.17949
G1 X73.38 Y187.743 E69.18861
G1 X67.761 Y191.906 E69.4212
G1 X67.507 Y192.082 E69.43148
G1 X60.19 Y196.858 E69.7221
G1 X59.954 Y197.004 E69.73133
G1 X53.593 Y200.687 E69.9758
G1 X53.301 Y200.844 E69.98683
G1 X46.494 Y204.227 E70.23965
G1 X46.106 Y204.4 E70.25378
G1 X42.04 Y206.021 E70.39937
G1 X41.529 Y206.195 E70.41732
G1 X37.587 Y207.31 E70.55357
G1 X37.017 Y207.437 E70.573
G1 X33.36 Y208.039 E70.69627
G1 X32.866 Y208.096 E70.71281
G1 X30.024 Y208.288 E70.80755
G1 X29.203 Y208.279 E70.83486
G1 X27.097 Y208.088 E70.90519
G1 X26.46 Y207.99 E70.92662
G1 X25.957 Y207.854 E70.94396
G1 X24.197 Y207.281 E71.00552
G1 X23.598 Y207.043 E71.02696
G1 X23.032 Y206.734 E71.0484
G1 X22.359 Y206.228 E71.07641
G1 X21.158 Y205.164 E71.12978
G1 X20.703 Y204.708 E71.1512
G1 X20.308 Y204.198 E71.17266
G1 X19.978 Y203.644 E71.1941
G1 X19.721 Y203.053 E71.21554
G1 X19.601 Y202.683 E71.22848
G1 X19.13 Y201.012 E71.28622
G1 X18.994 Y200.382 E71.30766
G1 X18.937 Y199.739 E71.32913
G1 X18.979 Y198.924 E71.35627
G1 X19.257 Y196.808 E71.42725
G1 X19.381 Y196.175 E71.44871
G1 X19.512 Y195.746 E71.46362
G1 X20.389 Y193.275 E71.55083
G1 X20.645 Y192.677 E71.57247
G1 X22.13 Y189.726 E71.68235
G1 X22.332 Y189.36 E71.69625
G1 X23.556 Y187.348 E71.77458
G1 X23.81 Y186.971 E71.7897
G1 X26.485 Y183.333 E71.93989
G1 X26.674 Y183.091 E71.9501
G1 X34.103 Y174.146 E72.33684
G1 X34.187 Y174.047 E72.34116
G1 X39.631 Y167.815 E72.61638
G1 X39.743 Y167.691 E72.62194
G1 X45.066 Y161.979 E72.88163
G1 X45.192 Y161.848 E72.88767
M204 S5000
M205 X30 Y30
G1 F2400 E67.88767
;MESH:Wing.stl
G0 F3600 X54.025 Y159.361
G0 X54.937 Y160.267
G0 X60.396 Y154.955
G0 X60.326 Y154.885
M204 S500
M205 X20 Y20
;TYPE:WALL-INNER
G1 F2400 E72.88767
G1 F1800 X83.056 Y132.095 E73.95824
G1 X94.217 Y120.962 E74.48256
G1 X105.547 Y109.623 E75.0157
G1 X192.505 Y22.657 E79.10612
G1 X193.526 Y21.636 E79.15415
G1 X192.821 Y22.896 E79.17838
G1 X187.375 Y32.623 E79.54915
G1 X179.073 Y46.309 E80.08155
G1 X162.065 Y73.455 E81.14701
G1 X153.651 Y86.673 E81.66816
G1 X144.699 Y99.759 E82.1955
G1 X135.274 Y112.509 E82.72285
G1 X125.367 Y125.203 E83.25841
G1 X115.426 Y137.363 E83.78081
G1 X115.121 Y137.724 E83.79653
G1 X104.856 Y149.392 E84.31341
G1 X93.74 Y161.075 E84.84978
G1 X82.324 Y172.332 E85.38302
G1 X76.424 Y177.713 E85.64862
G1 X70.529 Y182.634 E85.90402
G1 X64.309 Y187.258 E86.1618
G1 X57.611 Y191.658 E86.42835
G1 X50.47 Y195.8 E86.70292
G1 X43.312 Y199.329 E86.96836
G1 X39.817 Y200.671 E87.09288
G1 X36.026 Y201.733 E87.22382
G1 X31.79 Y202.418 E87.36654
G1 X29.668 Y202.509 E87.43718
G1 X27.687 Y202.328 E87.50335
G1 X26.097 Y201.809 E87.55898
G1 X25.11 Y200.931 E87.60291
G1 X24.731 Y199.541 E87.65083
G1 X24.994 Y197.603 E87.71588
G1 X25.769 Y195.395 E87.79371
G1 X26.787 Y193.26 E87.87238
G1 X27.826 Y191.423 E87.94258
G1 X28.867 Y189.815 E88.00629
G1 X30.948 Y187.025 E88.12205
G1 X33.261 Y184.187 E88.24382
G1 X35.969 Y180.933 E88.38463
G1 X38.913 Y177.439 E88.53659
G1 X44.541 Y171.012 E88.82073
G1 X49.768 Y165.444 E89.07474
G1 X54.923 Y160.252 E89.31808
G1 X60.326 Y154.885 E89.57138
M204 S5000
M205 X30 Y30
G0 F3600 X60.396 Y154.955
G0 X72.365 Y146.387
G0 X88.695 Y162.657
G0 X88.594 Y162.657
M204 S500
M205 X20 Y20
G1 F1800 X88.452 Y162.515 E89.57806
G1 X72.505 Y146.568 E90.32816
G1 X72.364 Y146.427 E90.33479
G1 X72.223 Y146.568 E90.33907
G1 X63.262 Y155.547 E90.76099
G1 X54.381 Y164.395 E91.17795
G1 X47.414 Y171.641 E91.51228
G1 X43.633 Y175.871 E91.70099
G1 X41.419 Y178.427 E91.81346
G1 X38.701 Y181.636 E91.95333
G1 X50.148 Y193.084 E92.49178
G1 X56.472 Y189.361 E92.73586
G1 X61.779 Y185.89 E92.94678
G1 X66.462 Y182.526 E93.13856
G1 X70.544 Y179.339 E93.3108
G1 X74.152 Y176.311 E93.46747
G1 X77.011 Y173.777 E93.59453
G1 X78.527 Y172.386 E93.66296
G1 X81.042 Y170.021 E93.77779
G1 X82.576 Y168.555 E93.84836
G1 X84.296 Y166.892 E93.92793
G1 X88.451 Y162.798 E94.12194
G1 X88.594 Y162.657 E94.12624
M204 S5000
M205 X30 Y30
G0 F3600 X88.695 Y162.657
G0 X89.438 Y161.803
G0 X89.509 Y161.733
M204 S500
M205 X20 Y20
G1 F1800 X89.65 Y161.59 E94.13292
G1 X93.396 Y157.797 E94.31023
G1 X97.085 Y153.968 E94.48707
G1 X100.948 Y149.859 E94.67465
