;FLAVOR:Marlin
;TIME:837
;Filament used: 0.825309m
;Layer height: 0.2
;Generated with Cura_SteamEngine 4.0.0
M140 S70
M105
M190 S70
M104 S210
M105
M109 S210
M82 ;absolute extrusion mode
; Ender 3 Custom Start G-code
G28 ; Home all axes
G92 E0 ; Reset Extruder
G1 Z2.0 F3000 ; Move Z Axis up little to prevent scratching of Heat Bed
G1 X0.1 Y20 Z0.3 F5000.0 ; Move to start position
G1 X0.1 Y200.0 Z0.3 F1500.0 E15 ; Draw the first line
G1 X0.4 Y200.0 Z0.3 F5000.0 ; Move to side a little
G1 X0.4 Y20 Z0.3 F1500.0 E30 ; Draw the second line
G92 E0 ; Reset Extruder
G1 Z2.0 F3000 ; Move Z Axis up little to prevent scratching of Heat Bed
; End of custom start GCode
G92 E0
G1 F2400 E-5
;LAYER_COUNT:16
;LAYER:0
M107
M204 S5000
M205 X30 Y30
G0 F3600 X43.376 Y105.227 Z0.2
M204 S500
M205 X20 Y20
;TYPE:SKIRT
G1 F2400 E0
G1 F1800 X44.369 Y104.878 E0.03501
G1 X44.873 Y104.724 E0.05254
G1 X47.346 Y104.078 E0.13755
G1 X48.089 Y103.93 E0.16275
G1 X51.429 Y103.469 E0.27489
G1 X51.739 Y103.434 E0.28526
G1 X58.706 Y102.816 E0.5179
G1 X58.885 Y102.803 E0.52387
G1 X64.34 Y102.473 E0.70563
G1 X64.553 Y102.463 E0.71272
G1 X68.921 Y102.345 E0.85806
G1 X69.093 Y102.343 E0.86378
G1 X191.788 Y102.323 E4.94463
G1 X192.298 Y102.343 E4.96161
G1 X193 Y102.399 E4.98503
G1 X193.709 Y102.496 E5.00883
G1 X194.402 Y102.671 E5.0326
G1 X195.072 Y102.922 E5.0564
G1 X195.709 Y103.247 E5.08019
G1 X196.306 Y103.641 E5.10398
G1 X196.856 Y104.098 E5.12776
G1 X197.351 Y104.615 E5.15157
G1 X197.785 Y105.183 E5.17534
G1 X198.153 Y105.796 E5.19912
G1 X198.451 Y106.447 E5.22293
G1 X198.674 Y107.126 E5.24671
G1 X198.82 Y107.827 E5.27052
G1 X198.891 Y108.853 E5.30473
G1 X198.89 Y108.939 E5.30759
G1 X198.841 Y109.653 E5.33139
G1 X198.714 Y110.357 E5.35518
G1 X198.508 Y111.042 E5.37898
G1 X198.228 Y111.7 E5.40276
G1 X197.876 Y112.323 E5.42656
G1 X197.456 Y112.902 E5.45035
G1 X196.975 Y113.431 E5.47413
G1 X196.437 Y113.903 E5.49794
G1 X195.851 Y114.312 E5.5217
G1 X195.222 Y114.653 E5.5455
G1 X194.559 Y114.921 E5.56929
G1 X194.215 Y115.028 E5.58127
G1 X184.09 Y117.862 E5.93097
G1 X183.884 Y117.916 E5.93805
G1 X175.023 Y120.081 E6.24144
G1 X174.922 Y120.105 E6.24489
G1 X148.212 Y126.173 E7.15591
G1 X147.969 Y126.223 E7.16416
G1 X136.724 Y128.323 E7.54464
G1 X136.484 Y128.363 E7.55273
G1 X127.537 Y129.684 E7.85353
G1 X127.378 Y129.706 E7.85887
G1 X117.823 Y130.873 E8.17903
G1 X117.662 Y130.89 E8.18442
G1 X107.591 Y131.862 E8.52094
G1 X107.358 Y131.881 E8.52871
G1 X98.061 Y132.437 E8.83848
G1 X97.821 Y132.446 E8.84647
G1 X88.229 Y132.659 E9.16558
G1 X88.016 Y132.661 E9.17267
G1 X78.205 Y132.552 E9.499
G1 X77.958 Y132.544 E9.50722
G1 X73.832 Y132.339 E9.64462
G1 X73.524 Y132.316 E9.6549
G1 X68.548 Y131.827 E9.8212
G1 X68.227 Y131.788 E9.83195
G1 X64.37 Y131.211 E9.96166
G1 X63.987 Y131.141 E9.97461
G1 X58.546 Y129.985 E10.15962
G1 X58.156 Y129.89 E10.17297
G1 X53.103 Y128.48 E10.34745
G1 X52.751 Y128.37 E10.35972
G1 X49.182 Y127.149 E10.48518
G1 X48.709 Y126.966 E10.50205
G1 X47.214 Y126.318 E10.55624
G1 X46.726 Y126.082 E10.57427
G1 X43.974 Y124.601 E10.67822
G1 X43.259 Y124.153 E10.70628
G1 X41.148 Y122.628 E10.7929
G1 X40.497 Y122.089 E10.82101
G1 X39.345 Y120.999 E10.87376
G1 X38.792 Y120.404 E10.90077
G1 X38.156 Y119.627 E10.93417
G1 X37.734 Y119.049 E10.95797
G1 X37.398 Y118.463 E10.98044
G1 X36.908 Y117.495 E11.01653
G1 X36.621 Y116.84 E11.04031
G1 X36.409 Y116.157 E11.0641
G1 X36.275 Y115.455 E11.08787
G1 X36.234 Y115.052 E11.10134
G1 X36.166 Y114.081 E11.13371
G1 X36.156 Y113.366 E11.1575
G1 X36.225 Y112.654 E11.18129
G1 X36.374 Y111.954 E11.20509
G1 X36.6 Y111.276 E11.22886
G1 X36.952 Y110.532 E11.25624
G1 X37.439 Y109.653 E11.28966
G1 X37.82 Y109.048 E11.31344
G1 X38.266 Y108.489 E11.33723
G1 X38.772 Y107.983 E11.36103
G1 X39.107 Y107.703 E11.37555
G1 X40.147 Y106.894 E11.41937
G1 X40.736 Y106.487 E11.44318
G1 X41.311 Y106.175 E11.46494
G1 X42.732 Y105.494 E11.51735
G1 X43.376 Y105.227 E11.54054
M204 S5000
M205 X30 Y30
G0 F3600 X43.509 Y105.604
M204 S500
M205 X20 Y20
G1 F1800 X44.502 Y105.255 E11.57555
G1 X44.975 Y105.111 E11.59199
G1 X47.448 Y104.465 E11.67701
G1 X48.144 Y104.326 E11.70061
G1 X51.484 Y103.865 E11.81275
G1 X51.774 Y103.832 E11.82246
G1 X58.741 Y103.214 E12.05509
G1 X58.909 Y103.202 E12.0607
G1 X64.364 Y102.872 E12.24246
G1 X64.564 Y102.863 E12.24912
G1 X68.932 Y102.745 E12.39445
G1 X69.093 Y102.743 E12.39981
G1 X191.788 Y102.723 E16.48066
G1 X192.266 Y102.742 E16.49657
G1 X192.968 Y102.798 E16.52
G1 X193.654 Y102.893 E16.54303
G1 X194.325 Y103.066 E16.56608
G1 X194.971 Y103.315 E16.5891
G1 X195.584 Y103.638 E16.61215
G1 X196.156 Y104.028 E16.63518
G1 X196.679 Y104.482 E16.65821
G1 X197.146 Y104.993 E16.68123
G1 X197.551 Y105.555 E16.70428
G1 X197.889 Y106.159 E16.7273
G1 X198.155 Y106.799 E16.75035
G1 X198.345 Y107.465 E16.77338
G1 X198.458 Y108.148 E16.79641
G1 X198.491 Y108.849 E16.81975
G1 X198.49 Y108.935 E16.82261
G1 X198.442 Y109.626 E16.84565
G1 X198.314 Y110.306 E16.86866
G1 X198.109 Y110.968 E16.89171
G1 X197.83 Y111.601 E16.91472
G1 X197.479 Y112.198 E16.93775
G1 X197.061 Y112.751 E16.96081
G1 X196.583 Y113.252 E16.98384
G1 X196.05 Y113.694 E17.00687
G1 X195.47 Y114.073 E17.02992
G1 X194.85 Y114.381 E17.05294
G1 X194.107 Y114.643 E17.07914
G1 X183.982 Y117.477 E17.42885
G1 X183.789 Y117.528 E17.43549
G1 X174.928 Y119.693 E17.73887
G1 X174.833 Y119.715 E17.74212
G1 X148.123 Y125.783 E18.65313
G1 X147.895 Y125.83 E18.66087
G1 X136.65 Y127.93 E19.04135
G1 X136.425 Y127.968 E19.04894
G1 X127.478 Y129.289 E19.34974
G1 X127.329 Y129.309 E19.35474
G1 X117.774 Y130.476 E19.67491
G1 X117.623 Y130.492 E19.67996
G1 X107.552 Y131.464 E20.01648
G1 X107.334 Y131.481 E20.02375
G1 X98.037 Y132.037 E20.33352
G1 X97.812 Y132.047 E20.34101
G1 X88.22 Y132.26 E20.66012
G1 X88.02 Y132.261 E20.66677
G1 X78.209 Y132.152 E20.99311
G1 X77.978 Y132.145 E21.0008
G1 X73.852 Y131.94 E21.1382
G1 X73.563 Y131.918 E21.14784
G1 X68.587 Y131.429 E21.31414
G1 X68.286 Y131.392 E21.32422
G1 X64.429 Y130.815 E21.45393
G1 X64.07 Y130.75 E21.46607
G1 X58.629 Y129.594 E21.65108
G1 X58.263 Y129.504 E21.66361
G1 X53.21 Y128.094 E21.8381
G1 X52.881 Y127.992 E21.84955
G1 X49.312 Y126.771 E21.97501
G1 X48.868 Y126.599 E21.99085
G1 X47.373 Y125.951 E22.04504
G1 X46.916 Y125.73 E22.06193
G1 X44.164 Y124.249 E22.16587
G1 X43.493 Y123.829 E22.1922
G1 X41.382 Y122.304 E22.27882
G1 X40.772 Y121.798 E22.30518
G1 X39.62 Y120.708 E22.35793
G1 X39.101 Y120.15 E22.38327
G1 X38.465 Y119.373 E22.41667
G1 X38.058 Y118.813 E22.43969
G1 X37.755 Y118.283 E22.46
G1 X37.265 Y117.315 E22.49609
G1 X36.988 Y116.68 E22.51913
G1 X36.787 Y116.017 E22.54217
G1 X36.633 Y115.024 E22.57559
G1 X36.565 Y114.053 E22.60797
G1 X36.556 Y113.361 E22.63099
G1 X36.628 Y112.672 E22.65403
G1 X36.778 Y111.996 E22.67706
G1 X37.005 Y111.342 E22.70008
G1 X37.302 Y110.726 E22.72283
G1 X37.789 Y109.847 E22.75625
G1 X38.159 Y109.262 E22.77927
G1 X38.594 Y108.723 E22.80231
G1 X39.353 Y108.019 E22.83674
G1 X40.393 Y107.21 E22.88057
G1 X40.963 Y106.817 E22.90359
G1 X41.484 Y106.535 E22.9233
G1 X42.905 Y105.854 E22.97571
G1 X43.509 Y105.604 E22.99745
M204 S5000
M205 X30 Y30
G0 F3600 X43.641 Y105.982
M204 S500
M205 X20 Y20
G1 F1800 X44.634 Y105.633 E23.03246
G1 X45.076 Y105.498 E23.04783
G1 X47.549 Y104.852 E23.13284
G1 X48.198 Y104.723 E23.15485
G1 X51.538 Y104.262 E23.26699
G1 X51.809 Y104.231 E23.27606
G1 X58.776 Y103.613 E23.5087
G1 X58.933 Y103.601 E23.51393
G1 X64.388 Y103.271 E23.6957
G1 X64.575 Y103.263 E23.70192
G1 X68.943 Y103.145 E23.84726
G1 X69.093 Y103.143 E23.85225
G1 X191.788 Y103.123 E27.9331
G1 X192.234 Y103.141 E27.94795
G1 X192.936 Y103.197 E27.97137
G1 X193.599 Y103.29 E27.99364
G1 X194.246 Y103.461 E28.01589
G1 X194.867 Y103.708 E28.03812
G1 X195.455 Y104.028 E28.06039
G1 X196.001 Y104.415 E28.08265
G1 X196.496 Y104.865 E28.1049
G1 X196.934 Y105.37 E28.12713
G1 X197.309 Y105.925 E28.14941
G1 X197.615 Y106.519 E28.17163
G1 X197.848 Y107.147 E28.19391
G1 X198.004 Y107.797 E28.21614
G1 X198.082 Y108.462 E28.23841
G1 X198.091 Y108.844 E28.25112
G1 X198.09 Y108.93 E28.25398
G1 X198.042 Y109.597 E28.27623
G1 X197.915 Y110.254 E28.29848
G1 X197.711 Y110.891 E28.32073
G1 X197.432 Y111.499 E28.34298
G1 X197.082 Y112.07 E28.36525
G1 X196.667 Y112.595 E28.38751
G1 X196.193 Y113.066 E28.40974
G1 X195.665 Y113.478 E28.43201
G1 X195.092 Y113.824 E28.45427
G1 X194.482 Y114.099 E28.47653
G1 X193.999 Y114.258 E28.49344
G1 X183.874 Y117.092 E28.84314
G1 X183.694 Y117.139 E28.84933
G1 X174.833 Y119.304 E29.15272
G1 X174.745 Y119.325 E29.15573
G1 X148.035 Y125.393 E30.06674
G1 X147.822 Y125.437 E30.07398
G1 X136.577 Y127.537 E30.45445
G1 X136.367 Y127.572 E30.46153
G1 X127.42 Y128.893 E30.76234
G1 X127.281 Y128.912 E30.76701
G1 X117.726 Y130.079 E31.08717
G1 X117.585 Y130.094 E31.09188
G1 X107.514 Y131.066 E31.4284
G1 X107.31 Y131.082 E31.43521
G1 X98.013 Y131.638 E31.74498
G1 X97.803 Y131.647 E31.75197
G1 X88.211 Y131.86 E32.07108
G1 X88.025 Y131.861 E32.07727
G1 X78.214 Y131.752 E32.4036
G1 X77.998 Y131.745 E32.41079
G1 X73.872 Y131.54 E32.54819
G1 X73.602 Y131.52 E32.5572
G1 X68.626 Y131.031 E32.7235
G1 X68.345 Y130.996 E32.73291
G1 X64.488 Y130.419 E32.86263
G1 X64.153 Y130.359 E32.87395
G1 X58.712 Y129.203 E33.05895
G1 X58.371 Y129.119 E33.07063
G1 X53.318 Y127.709 E33.24512
G1 X53.01 Y127.614 E33.25584
G1 X49.441 Y126.393 E33.3813
G1 X49.027 Y126.232 E33.39607
G1 X47.532 Y125.584 E33.45027
G1 X47.105 Y125.377 E33.46605
G1 X44.353 Y123.896 E33.56999
G1 X43.728 Y123.504 E33.59453
G1 X41.617 Y121.979 E33.68115
G1 X41.047 Y121.508 E33.70574
G1 X39.895 Y120.418 E33.75849
G1 X39.411 Y119.897 E33.78214
G1 X38.775 Y119.12 E33.81554
G1 X38.383 Y118.578 E33.83779
G1 X38.112 Y118.102 E33.856
G1 X37.622 Y117.134 E33.89209
G1 X37.356 Y116.52 E33.91435
G1 X37.165 Y115.879 E33.93659
G1 X37.032 Y114.996 E33.96629
G1 X36.964 Y114.025 E33.99867
G1 X36.957 Y113.356 E34.02092
G1 X37.03 Y112.691 E34.04317
G1 X37.182 Y112.04 E34.0654
G1 X37.41 Y111.411 E34.08766
G1 X37.652 Y110.92 E34.10586
G1 X38.139 Y110.041 E34.13929
G1 X38.497 Y109.476 E34.16153
G1 X38.921 Y108.958 E34.1838
G1 X39.599 Y108.335 E34.21442
G1 X40.639 Y107.526 E34.25825
G1 X41.19 Y107.147 E34.28049
G1 X41.657 Y106.896 E34.29812
G1 X43.078 Y106.215 E34.35053
G1 X43.641 Y105.982 E34.3708
M204 S5000
M205 X30 Y30
G0 F3600 X43.774 Y106.359
M204 S500
M205 X20 Y20
G1 F1800 X44.767 Y106.01 E34.40581
G1 X45.177 Y105.885 E34.42006
G1 X47.65 Y105.239 E34.50508
G1 X48.253 Y105.119 E34.52552
G1 X51.593 Y104.658 E34.63767
G1 X51.845 Y104.629 E34.6461
G1 X58.812 Y104.011 E34.87874
G1 X58.957 Y104 E34.88357
G1 X64.412 Y103.67 E35.06534
G1 X64.586 Y103.663 E35.07113
G1 X68.954 Y103.545 E35.21646
G1 X69.093 Y103.543 E35.22109
G1 X191.788 Y103.523 E39.30194
G1 X192.203 Y103.539 E39.31575
G1 X192.905 Y103.595 E39.33918
G1 X193.543 Y103.686 E39.36061
G1 X194.165 Y103.856 E39.38206
G1 X194.761 Y104.101 E39.40349
G1 X195.323 Y104.418 E39.42495
G1 X195.84 Y104.801 E39.44635
G1 X196.307 Y105.246 E39.46781
G1 X196.715 Y105.746 E39.48927
G1 X197.058 Y106.292 E39.51072
G1 X197.33 Y106.876 E39.53214
G1 X197.529 Y107.489 E39.55358
G1 X197.649 Y108.122 E39.57501
G1 X197.691 Y108.839 E39.5989
G1 X197.69 Y108.925 E39.60176
G1 X197.642 Y109.568 E39.6232
G1 X197.516 Y110.2 E39.64464
G1 X197.312 Y110.812 E39.66609
G1 X197.034 Y111.394 E39.68755
G1 X196.686 Y111.937 E39.709
G1 X196.274 Y112.432 E39.73042
G1 X195.803 Y112.873 E39.75188
G1 X195.282 Y113.252 E39.77331
G1 X194.717 Y113.564 E39.79477
G1 X193.892 Y113.873 E39.82407
G1 X183.767 Y116.707 E40.17378
G1 X183.599 Y116.75 E40.17954
G1 X174.738 Y118.915 E40.48293
G1 X174.656 Y118.935 E40.48574
G1 X147.946 Y125.003 E41.39675
G1 X147.749 Y125.044 E41.40345
G1 X136.504 Y127.144 E41.78392
G1 X136.309 Y127.176 E41.79049
G1 X127.362 Y128.497 E42.0913
G1 X127.232 Y128.515 E42.09566
G1 X117.677 Y129.682 E42.41583
G1 X117.547 Y129.696 E42.42017
G1 X107.476 Y130.668 E42.75669
G1 X107.286 Y130.683 E42.76303
G1 X97.989 Y131.239 E43.0728
G1 X97.794 Y131.247 E43.0793
G1 X88.202 Y131.46 E43.39841
G1 X88.029 Y131.461 E43.40416
G1 X78.218 Y131.352 E43.7305
G1 X78.018 Y131.346 E43.73715
G1 X73.892 Y131.141 E43.87455
G1 X73.641 Y131.122 E43.88292
G1 X68.665 Y130.633 E44.04922
G1 X68.405 Y130.601 E44.05794
G1 X64.548 Y130.024 E44.18765
G1 X64.236 Y129.967 E44.1982
G1 X58.795 Y128.811 E44.3832
G1 X58.478 Y128.734 E44.39405
G1 X53.425 Y127.324 E44.56854
G1 X53.14 Y127.235 E44.57847
G1 X49.571 Y126.014 E44.70393
G1 X49.186 Y125.865 E44.71766
G1 X47.691 Y125.217 E44.77185
G1 X47.295 Y125.025 E44.78649
G1 X44.543 Y123.544 E44.89044
G1 X43.962 Y123.18 E44.91324
G1 X41.851 Y121.655 E44.99986
G1 X41.322 Y121.217 E45.0227
G1 X40.17 Y120.127 E45.07545
G1 X39.72 Y119.644 E45.0974
G1 X39.084 Y118.867 E45.1308
G1 X38.707 Y118.343 E45.15227
G1 X38.469 Y117.921 E45.16838
G1 X37.979 Y116.953 E45.20447
G1 X37.724 Y116.361 E45.22591
G1 X37.544 Y115.742 E45.24735
G1 X37.431 Y114.968 E45.27337
G1 X37.363 Y113.997 E45.30574
G1 X37.358 Y113.353 E45.32716
G1 X37.432 Y112.712 E45.34862
G1 X37.586 Y112.086 E45.37006
G1 X37.815 Y111.484 E45.39149
G1 X38.001 Y111.114 E45.40526
G1 X38.488 Y110.235 E45.43868
G1 X38.835 Y109.691 E45.46014
G1 X39.247 Y109.195 E45.48159
G1 X39.844 Y108.651 E45.50845
G1 X40.884 Y107.842 E45.55228
G1 X41.417 Y107.478 E45.57374
G1 X41.83 Y107.257 E45.58932
G1 X43.251 Y106.576 E45.64173
G1 X43.774 Y106.359 E45.66057
M204 S5000
M205 X30 Y30
G1 F2400 E40.66057
;MESH:Wing.stl
G0 F3600 X46.536 Y110.189
G0 X46.964 Y111.4
G0 X56.344 Y111.058
G0 X56.376 Y121.177
G0 X56.318 Y121.097
M204 S500
M205 X20 Y20
;TYPE:WALL-INNER
G1 F2400 E45.66057
G1 F1800 X56.318 Y120.823 E45.66968
G1 X56.318 Y120.822 E45.66971
G1 X56.318 Y111.306 E45.98622
G1 X56.318 Y111.305 E45.98625
G1 X56.318 Y111.088 E45.99347
G1 X56.101 Y111.107 E45.99804
G1 X53.62 Y111.329 E46.08089
G1 X51.882 Y111.506 E46.13899
G1 X50.881 Y111.623 E46.17251
G1 X49.978 Y111.76 E46.20289
G1 X48.625 Y112.026 E46.24875
G1 X46.979 Y112.477 E46.30552
G1 X45.422 Y113.083 E46.36109
G1 X44.843 Y113.394 E46.38295
G1 X44.162 Y113.856 E46.41032
G1 X43.993 Y113.971 E46.41712
G1 X44.112 Y114.137 E46.42148
G1 X44.737 Y115.009 E46.45716
G1 X45.481 Y115.781 E46.49282
G1 X47.473 Y117.311 E46.57637
G1 X47.605 Y117.4 E46.58166
G1 X48.731 Y118.086 E46.62551
G1 X50.364 Y118.918 E46.68647
G1 X51.455 Y119.392 E46.72603
G1 X52.597 Y119.845 E46.7669
G1 X54.062 Y120.364 E46.81859
G1 X56.057 Y121.013 E46.88837
G1 X56.318 Y121.097 E46.8938
M204 S5000
M205 X30 Y30
G0 F3600 X56.376 Y121.177
G0 X56.589 Y111.032
G0 X77.377 Y109.443
G0 X77.377 Y109.343
M204 S500
M205 X20 Y20
G1 F1800 X96.574 Y109.32 E47.5323
G1 X106.047 Y109.33 E47.84737
G1 X187.248 Y109.323 E50.54813
G1 X187.249 Y109.323 E50.54816
G1 X188.694 Y109.323 E50.59622
G1 X187.303 Y109.715 E50.62049
G1 X183.076 Y110.907 E50.76656
G1 X173.715 Y113.199 E51.0871
G1 X154.929 Y117.512 E51.72818
G1 X145.868 Y119.524 E52.0369
G1 X136.32 Y121.31 E52.35997
G1 X127.179 Y122.677 E52.66738
G1 X117.535 Y123.868 E52.99058
G1 X108.271 Y124.798 E53.30025
G1 X107.803 Y124.839 E53.31588
G1 X98.626 Y125.424 E53.62172
G1 X88.888 Y125.667 E53.94571
G1 X79.319 Y125.599 E54.26399
G1 X74.494 Y125.376 E54.42464
G1 X69.953 Y124.966 E54.57629
G1 X65.378 Y124.292 E54.73009
G1 X60.686 Y123.32 E54.88946
G1 X55.931 Y122.057 E55.0531
G1 X51.39 Y120.516 E55.21259
G1 X49.355 Y119.609 E55.2867
G1 X47.32 Y118.465 E55.36434
G1 X45.261 Y116.978 E55.44882
G1 X44.348 Y116.14 E55.49004
G1 X43.604 Y115.249 E55.52864
G1 X43.189 Y114.426 E55.5593
G1 X43.148 Y113.754 E55.58169
G1 X43.506 Y113.123 E55.60582
G1 X44.402 Y112.44 E55.64329
G1 X45.636 Y111.847 E55.68883
G1 X46.958 Y111.381 E55.73545
G1 X48.156 Y111.049 E55.7768
G1 X49.281 Y110.809 E55.81506
G1 X51.336 Y110.511 E55.88412
G1 X53.494 Y110.291 E55.95627
G1 X56.023 Y110.059 E56.04074
G1 X58.798 Y109.824 E56.13337
G1 X63.87 Y109.488 E56.30243
G1 X68.425 Y109.346 E56.454
G1 X72.805 Y109.328 E56.59969
G1 X77.377 Y109.343 E56.75175
M204 S5000
M205 X30 Y30
G0 F3600 X77.377 Y109.443
G0 X86.346 Y110.355
G0 X86.388 Y124.706
G0 X86.318 Y124.636
M204 S500
M205 X20 Y20
